src/public/images/header-tablet-logo.svg

<svg width="126" height="14" viewBox="0 0 126 14" fill="none" xmlns="http://www.w3.org/2000/svg">
<path d="M15.002 5.242H13.4V5.026C13.4 3.55 13.238 3.01 13.13 2.704C12.824 1.804 12.302 1.138 11.348 0.795999C10.898 0.633999 10.124 0.471999 9.116 0.471999L0.422 0.489999V13.072L10.736 13.09C11.744 13.09 12.518 12.946 12.968 12.766C13.922 12.424 14.48 11.758 14.75 10.858C14.84 10.552 15.02 10.012 15.02 8.554L15.002 5.242ZM10.052 5.008V5.242H3.77V3.226H8.504C9.8 3.226 10.052 4 10.052 5.008ZM10.124 10.336H3.77V7.996H11.672V8.554C11.672 9.562 11.402 10.336 10.124 10.336ZM20.7329 10.264V0.417999H17.3849V13H29.8769V10.264H20.7329ZM42.2586 0.489999H34.5186L30.7026 13.072H34.1226L35.0046 10.156H41.7726L42.6546 13.072H46.0746L42.2586 0.489999ZM39.6846 3.244L40.8726 7.24H35.9046L37.0926 3.244H39.6846ZM47.9181 0.417999V13H51.3021V3.334L57.0081 13H62.5161V0.417999H59.1321V10.084L53.3721 0.417999H47.9181ZM79.9532 5.242H78.3512V5.026C78.3512 3.55 78.1892 3.01 78.0812 2.704C77.7752 1.804 77.2532 1.138 76.2992 0.795999C75.8492 0.633999 75.0752 0.471999 74.0672 0.471999L65.3732 0.489999V13.072L75.6872 13.09C76.6952 13.09 77.4692 12.946 77.9192 12.766C78.8732 12.424 79.4312 11.758 79.7012 10.858C79.7912 10.552 79.9712 10.012 79.9712 8.554L79.9532 5.242ZM75.0032 5.008V5.242H68.7212V3.226H73.4552C74.7512 3.226 75.0032 4 75.0032 5.008ZM75.0752 10.336H68.7212V7.996H76.6232V8.554C76.6232 9.562 76.3532 10.336 75.0752 10.336ZM92.8661 0.489999H85.1261L81.3101 13.072H84.7301L85.6121 10.156H92.3801L93.2621 13.072H96.6821L92.8661 0.489999ZM90.2921 3.244L91.4801 7.24H86.5121L87.7001 3.244H90.2921ZM101.874 10.264V0.417999H98.5255V13H111.018V10.264H101.874ZM116.217 10.264V0.417999H112.869V13H125.361V10.264H116.217Z" fill="white"/>
</svg>

<svg xmlns="http://www.w3.org/2000/svg" width="126" height="14" fill="none"><path fill="#fff" d="M15.002 5.242H13.4v-.216c0-1.476-.162-2.016-.27-2.322-.306-.9-.828-1.566-1.782-1.908-.45-.162-1.224-.324-2.232-.324L.422.49v12.582l10.314.018c1.008 0 1.782-.144 2.232-.324.954-.342 1.512-1.008 1.782-1.908.09-.306.27-.846.27-2.304l-.018-3.312Zm-4.95-.234v.234H3.77V3.226h4.734c1.296 0 1.548.774 1.548 1.782Zm.072 5.328H3.77v-2.34h7.902v.558c0 1.008-.27 1.782-1.548 1.782Zm10.609-.072V.418h-3.348V13h12.492v-2.736h-9.144ZM42.259.49h-7.74l-3.816 12.582h3.42l.882-2.916h6.768l.882 2.916h3.42L42.259.49Zm-2.574 2.754 1.188 3.996h-4.968l1.188-3.996h2.592ZM47.918.418V13h3.384V3.334L57.008 13h5.508V.418h-3.384v9.666L53.372.418h-5.454Zm32.035 4.824h-1.602v-.216c0-1.476-.162-2.016-.27-2.322-.306-.9-.828-1.566-1.782-1.908-.45-.162-1.224-.324-2.232-.324L65.373.49v12.582l10.314.018c1.008 0 1.782-.144 2.232-.324.954-.342 1.512-1.008 1.782-1.908.09-.306.27-.846.27-2.304l-.018-3.312Zm-4.95-.234v.234h-6.282V3.226h4.734c1.296 0 1.548.774 1.548 1.782Zm.072 5.328h-6.354v-2.34h7.902v.558c0 1.008-.27 1.782-1.548 1.782ZM92.866.49h-7.74L81.31 13.072h3.42l.882-2.916h6.768l.882 2.916h3.42L92.866.49Zm-2.574 2.754L91.48 7.24h-4.968L87.7 3.244h2.592Zm11.582 7.02V.418h-3.349V13h12.493v-2.736h-9.144Zm14.343 0V.418h-3.348V13h12.492v-2.736h-9.144Z"/></svg>
